!!!OTL: Venus, du und dein Kind. / Choral. (Zuerst bei H. Schein 1627, und noch jetzt gebraeuchlich.)
!!!ARE: Europa, Mitteleuropa, Deutschland
!!!SCT: A0219C
!!!TXL: @@GMH
!!!YEM: Copyright 1995, estate of Helmut Schaffrath.
**kern	**text
*M4/2	*
*met(c|)	*
*clefC3	*
*k[]	*
*d:	*
{2d	Auf
=1	=1
2d	mei-
2e	-nen
2f	lie-
2g	-ben
=2	=2
1a	Gott
2r}	.
{2a	trau
=3	=3
2a	ich
2g	in
2f	angſt
2f	und
=4	=4
1e	not,
2r}	.
{2e	er
=5	=5
2f	kan
2g	mich
2a	all-
2a	-ʒeit
=6	=6
1g	ret-
2a}	-ten,
{2a	aus
=7	=7
2f	trüb-
2g	-ſal,
2a	angſt
2a	vnd
=8	=8
1g	nö-
1f}	-ten,
=9	=9
{1a	mein
2cc	un-
2a	-glück
=10	=10
2a	kan
2a	er
1g	wen-
=11	=11
2g}	-den,
{2g	ſtet
2.a	alls
4g	in
=12	=12
2f	ſei-
2g	-nen
1e	häu-
=13	=13
1.dll}	-den.
==	==
!!!GTL: Liebeslieder
!!!AGN: Romanze, Ballade, Lied
!! Als Choral. Zuerst bei H. Schein 1627.
!!!ONB: ESAC (Essen Associative Code) Database: ALTDEU
!!!AMT: simple quadruple
!!!AIN: vox
!!!EED: Helmut Schaffrath
!!!EEV: 1.0
!!!RDF**kern: l = terminal long
!!!URL-scan: https://rosdok.uni-rostock.de/mcrviewer/recordIdentifier/rosdok_ppn738218359/iview2/phys_0375.iview2?x=-1816.6124862433817&y=1260.065934811253&scale=0.262872707487861&rotation=0&layout=singlePageLayout
!!!ENC: Anna Maria Matuszewska
!!!EEV: 2024/08/03
*-	*-
